X:70
T:Pomuletul
O:rumania
C:- Roem -
M:2/4
L:1/8
Q:1/4=115
K:Dm
V:1
"F" A/c/B/c/ "Bb" dd |"C7" c/B/A/G/ "F" G/F/A/F/ |"F" A/c/B/c/ "Bb" dd |"C7" c/B/A/G/ "F" F2 :| |:
"Gm" c/B/A/G/ "Dm" G/F/A/F/ |"A7" G/F/E/F/ "Dm" D/E/F/G/ |"Gm" c/B/A/G/ "Dm" G/F/A/F/ |"A7" G/F/E/F/ "Dm" D2 :| |:
"F" F/A/^G/A/ "Bb" BB |"C7" A/G/F/E/ FC |"F" F/A/^G/A/ "Bb" BB |"C7" A/G/F/E/ "F" F2 :| |:
"Gm" D/E/F "Dm" G/A/B |"A7" A/B/^c "Dm" dD |"Gm" D/E/F "Dm" G/A/B |"A7" A/B/^c "Dm" d2 :|





